X: 1
T: The Reel With The Birl
R: reel
M: 4/4
L: 1/8
K: Edor
|:E2 BE dEBE|(3EEE BE AGFD|(3EEE BE dEB2|1 dcdB AGFD:|2 dcdB A4||
B3 d e3 g|f~d3 d^def|g4 g3 g|fa (3aaa afe2|
b3 b2 afe|a3 a2 fed|B3 B2 AFA|dcdB AGFD|


Tune 189	Setting 12837

